!!!!SEGMENT: pl-sa--575-a-ix-55--010_anonim--polonez.krn
!!!cenid: 18xx:624
!!!COM: Anonim
!!!COM-rismID: pe30004985
!!!CDT:
!!!CNT:
!!!OTL: Polonez
!!!PDT:
!!!AGN: Secular; Polonaise
!!!SMS-siglum: PL-SA
!!!SMS-shelfmark: 575/A IX 55
!!!SMS-shelfwork: 010 W
!!!SMS-variant:
!!!SMS-altvar:
!!!NIFC-rismSourceID: 1001109844
!!!NIFC-islandoraID:
!!!URL-pdf-islandora:
!!!URL-scan: https://bc.bdsandomierz.pl/dlibra/publication/1381/edition/1349/content @EN{Scan on Cyfrowa Biblioteka Diecezjalna w Sandomierzu} @PL{Skany w portalu Cyfrowa Biblioteka Diecezjalna w Sandomierzu}
!!!ONB-nifc: Str. 5
!!!AIN: 1 empty 1 piano
!!!key:
**kern	**kern	**dynam
*part2	*part1	*part1
*staff2	*staff1	*
*Iempty	*Ipiano	*
*	*I"Piano	*
*clefF4	*clefG2	*
*k[]	*k[]	*
*C:	*C:	*
*M3/4	*M3/4	*
*>[A,B,C,B,C]	*>[A,B,C,B,C]	*
=1	=1	=1
*>A	*>A	*
*2\right	*2\right	*
!!LO:TX:a:t=P:w źródle caudy nut po lewej, po prawej oraz na środku:problem
!	!LO:TX:a:Bi:t=Polonez:problem='Polonez' znajduje się po lewej stronie systemu	!
!	!	!LO:DY:b:rj
4c 4G 4E 4C\	8cccL 8gg 8ee 8cc\	f
.	16cccL 16gg 16ee 16cc\	.
.	16cccJJ 16gg 16ee 16cc\	.
4c 4G 4E 4C\	8cccL 8gg 8ee 8cc\	.
.	8cccJ 8gg 8ee 8cc\	.
4c 4G 4E 4C\	8cccL 8gg 8ee 8cc\	.
.	8cccJ 8gg 8ee 8cc\	.
=2	=2	=2
8cL 8G 8E 8C\	8cccL 8gg 8ee 8cc\	.
16C\L	16cc\L	.
16C\JJ	16cc\JJ	.
16C\LL	16cc\LL	.
16D\	16dd\	.
16E\	16ee\	.
16F\JJ	16ff\JJ	.
16G\LL	16gg\LL	.
16A\	16aa\	.
16B\	16bb\	.
16c\JJ	16ccc\JJ	.
=3	=3	=3
*^	*	*
8G/L	4GG\	8bbL 8gg 8dd\	.
16G/L	.	16bbL 16gg 16dd\	.
16G/JJ	.	16bbJJ 16gg 16dd\	.
8G/L	4r	8bbL 8gg 8dd\	.
8G/J	.	8bbJ 8gg 8dd\	.
8c/L	4C\	8cccL 8gg 8ee\	.
8c/J	.	8cccJ 8gg 8ee\	.
*v	*v	*	*
=4	=4	=4
8GL 8GG\	8bbL 8gg 8dd\	.
16GL 16GG\	16g\L	.
16GJJ 16GG\	16g\JJ	.
4G 4GG\	16g\LL	.
.	16a\	.
.	16b\	.
.	16cc\JJ	.
4r	16dd\LL	.
.	16ee\	.
.	16ff\	.
.	16ff#X\JJ	.
!!LO:LB:g=original
=5	=5	=5
*>B	*>B	*
*tremolo	*	*
*clefG2	*	*
!LO:TX:a:t=[segno]:rj	!LO:TX:a:t=[segno]:rj	!
8fL 8d 8B/	[>4gg\	.
8G/	.	.
!	!LO:TUP:a:problem=klamra łukowa	!
8f 8d 8B/	12gg\L]	.
.	12dd\	.
8G/	.	.
.	12ee\J	.
!	!LO:TUP:a:problem=klamra łukowa	!
8f 8d 8B/	12ff\L	.
.	12aa\	.
8G/J	.	.
*Xtremolo	*	*
.	12gg\J	.
=6	=6	=6
*	*Xtuplet	*
*tremolo	*	*
8eL 8c/	12ggL 12ee\	.
.	12ddd#X 12ff#X\	.
8G/	.	.
.	12eeeJ 12gg\	.
8e 8c/	4.ccc 4.ee\	.
8G/	.	.
8e 8c/	.	.
8G/J	16bbLL 16dd\	.
*Xtremolo	*	*
.	16cccJJ 16ee\	.
*	*tuplet	*
=7	=7	=7
*tremolo	*	*
8fL 8d 8B/	8.dddL 8.ffn\	.
8G/	.	.
.	16cccK 16ee\	.
8f 8d 8B/	8bb 8dd\	.
8G/	8aa 8ff\	.
8f 8d 8B/	8gg 8ee\	.
8G/J	8ffJ 8dd\	.
*Xtremolo	*	*
=8	=8	=8
8e 8c/	8ee 8cc\	.
*clefF4	*	*
16c\LL	16ccc\LL	f
16B\JJ	16bb\JJ	.
8c\L	8ccc\L	.
8G\	8gg\	.
8E\	8ee\	.
8C\J	8cc\J	.
=9	=9	=9
!	!LO:TUP:a:problem=klamra łukowa	!
8A 8F 8C\	12aaL 12ff\	p
.	12bb 12gg\	.
8r	.	.
.	12cccJ 12aa\	.
*rep	*rep	*
!	!LO:TUP:a:problem=klamra łukowa	!
8A 8F 8C\	12aaL 12ff\	.
.	12bb 12gg\	.
8r	.	.
.	12cccJ 12aa\	.
*Xrep	*Xrep	*
*rep	*rep	*
!	!LO:TUP:a:problem=klamra łukowa	!
8A 8F 8C\	12aaL 12ff\	.
.	12bb 12gg\	.
8r	.	.
.	12cccJ 12aa\	.
*Xrep	*Xrep	*
=10	=10	=10
!	!LO:TUP:a:problem=klamra łukowa	!
8G 8E 8C\	12ggL 12ee\	.
.	12ff 12dd\	.
8r	.	.
.	12eeJ 12cc\	.
*rep	*rep	*
!	!LO:TUP:a:problem=klamra łukowa	!
8G 8E 8C\	12ggL 12ee\	.
.	12ff 12dd\	.
8r	.	.
.	12eeJ 12cc\	.
*Xrep	*Xrep	*
*rep	*rep	*
!	!LO:TUP:a:problem=klamra łukowa	!
8G 8E 8C\	12ggL 12ee\	.
.	12ff 12dd\	.
8r	.	.
.	12eeJ 12cc\	.
*Xrep	*Xrep	*
!!LO:LB:g=original
=11	=11	=11
*	*Xtuplet	*
8A 8F 8C\	12aaL 12ff\	.
.	12bb 12gg\	.
8r	.	.
.	12cccJ 12aa\	.
*rep	*rep	*
8A 8F 8C\	12aaL 12ff\	.
.	12bb 12gg\	.
8r	.	.
.	12cccJ 12aa\	.
*Xrep	*Xrep	*
*rep	*rep	*
8A 8F 8C\	12aaL 12ff\	.
.	12bb 12gg\	.
8r	.	.
.	12cccJ 12aa\	.
*Xrep	*Xrep	*
=12	=12	=12
8G 8E 8C\	12ggL 12ee\	.
.	12ff 12dd\	.
8r	.	.
.	12eeJ 12cc\	.
*rep	*rep	*
8G 8E 8C\	12ggL 12ee\	.
.	12ff 12dd\	.
8r	.	.
.	12eeJ 12cc\	.
*Xrep	*Xrep	*
*rep	*rep	*
8G 8E 8C\	12ggL 12ee\	.
.	12ff 12dd\	.
8r	.	.
.	12eeJ 12cc\	.
*Xrep	*Xrep	*
*	*tuplet	*
=13	=13	=13
*tremolo	*	*
8cL 8G 8E 8C\	16ccc\LL	f
.	16cc\	.
8c 8G 8E 8C\	16ee\	.
.	16gg\JJ	.
8c 8G 8E 8C\	16ccc\LL	.
.	16gg\	.
8c 8G 8E 8C\	16eee\	.
.	16ddd\JJ	.
8c 8G 8E 8C\	16ccc\LL	.
.	16bb\	.
8cJ 8G 8E 8C\	16aa\	.
*Xtremolo	*	*
.	16gg#X\JJ	.
=14	=14	=14
*tremolo	*	*
8eL 8c 8A\	16aa\LL	.
.	16a\	.
8e 8c 8A\	16cc\	.
.	16ee\JJ	.
8e 8c 8A\	16aa\LL	.
.	16ee\	.
8e 8c 8A\	16ccc\	.
.	16bb\JJ	.
8e 8c 8A\	16aa\LL	.
.	16gg\	.
8eJ 8c 8A\	16ff\	.
*Xtremolo	*	*
.	16ee\JJ	.
=15	=15	=15
*tremolo	*	*
8dL 8c 8A 8F\	16dd\LL	.
.	16ee\	.
8d 8c 8A 8F\	16ff\	.
.	16gg\JJ	.
8d 8c 8A 8F\	16aa\LL	.
.	16bb\	.
8d 8c 8A 8F\	16ccc\	.
.	16bb\JJ	.
8d 8c 8A 8F\	16ddd\LL	.
.	16ccc\	.
8dJ 8c 8A 8F\	16aa\	.
*Xtremolo	*	*
.	16ff\JJ	.
!!LO:LB:g=original
=16	=16	=16
8eL 8c 8G\	16ee\LL	.
.	16gg\	.
8fJ 8B 8G\	16ff\	.
.	16dd\JJ	.
8r	4dd\	.
8f 8B 8G\	.	.
4e 4c\	8cc\	.
.	8r	.
!LO:TX:a:t=P:problem=W źródle wygląd kreski przypomina kreskę taktową końcową	!LO:TX:a:t=P:problem=W źródle wygląd kreski przypomina kreskę taktową końcową	!
=17||	=17||	=17||
*>C	*>C	*
16G\LL	8dd\L	f
16d\	.	.
.	8qee/	.
16B\	16dd\L	.
16d\JJ	16cc#X\JJ	.
*rep	*	*
16G\LL	8dd\L	.
16d\	.	.
16B\	16ee\L	.
16d\JJ	16ff#X\JJ	.
*Xrep	*	*
*rep	*	*
16G\LL	16gg\LL	.
16d\	16aa\	.
16B\	16bb\	.
16d\JJ	16ccc\JJ	.
*Xrep	*	*
=18	=18	=18
*rep	*	*
16G\LL	4ddd\	.
16d\	.	.
16B\	.	.
16d\JJ	.	.
*Xrep	*	*
*rep	*	*
16G\LL	16ccc#X\LL	.
16d\	16ddd\	.
16B\	16eee\	.
16d\JJ	16ddd\JJ	.
*Xrep	*	*
*rep	*	*
16G\LL	16ggg\LL	.
16d\	16ddd\	.
16B\	16bb\	.
16d\JJ	16gg\JJ	.
*Xrep	*	*
=19	=19	=19
16F#X\LL	16ccc\LL	.
16d\	16ddd\	.
16A\	16eee\	.
16d\JJ	16ddd\JJ	.
*rep	*	*
16F#X\LL	16ccc\LL	.
16d\	16bb\	.
16A\	16aa\	.
16d\JJ	16bb\JJ	.
*Xrep	*	*
16G\LL	16aa\LL	.
16d\	16gg\	.
16B\	16ff#X\	.
16d\JJ	16gg\JJ	.
=20	=20	=20
16A\LL	16ff#X\LL	.
16d\	16aa\	.
16c\	16ccc\	.
16d\JJ	16bb\JJ	.
*rep	*	*
16A\LL	16aa\LL	.
16d\	16gg\	.
16c\	16ff#\	.
16d\JJ	16ee\JJ	.
*Xrep	*	*
16F#X\LL	16dd\LL	.
16d\	16cc\	.
16A\	16b\	.
16d\JJ	16a\JJ	.
!!LO:LB:g=original
=21	=21	=21
8G\L	(>16g\LL	p
.	16gg\	.
8dJ 8B 8G\	16ff#X\	.
.	16gg\JJ)	.
*tremolo	*	*
8dL 8B 8G\	4.bb\	.
8d 8B 8G\	.	.
8d 8B 8G\	.	.
8dJ 8B 8G\	8gg\	.
*Xtremolo	*	*
=22	=22	=22
*tremolo	*	*
!LO:SIC:n=4:s=2.F#:v	!	!
8dL 8c 8A 8F\	(>16aa\LL	.
.	16bb\	.
8d 8c 8A 8F\	16ccc\	.
.	16ddd\JJ)	.
8d 8c 8A 8F\	8eee\L	.
8d 8c 8A 8F\	8ddd\	.
8d 8c 8A 8F\	8ccc\	.
8dJ 8c 8A 8F\	8aa\J	.
*Xtremolo	*	*
=23	=23	=23
*tremolo	*	*
8dL 8B 8G\	16gg\LL	.
.	8qaa/	.
.	16gg\	.
8d 8B 8G\	16ff#X\	.
.	16gg\JJ	.
8d 8B 8G\	8.bb\L	.
8d 8B 8G\	.	.
.	16gg\K	.
8d 8B 8G\	8.bb\	.
8dJ 8B 8G\	.	.
*Xtremolo	*	*
.	16gg\Jk	.
=24	=24	=24
*tremolo	*	*
8dL 8c 8A 8F#X\	(>16aa\LL	.
.	16bb\	.
8d 8c 8A 8F#\	16ccc\	.
.	16ddd\JJ	.
8d 8c 8A 8F#\	8eee\L)	.
8d 8c 8A 8F#\	8ddd\	.
8d 8c 8A 8F#\	8ccc\	.
8dJ 8c 8A 8F#\	8aa\J	.
*Xtremolo	*	*
=25	=25	=25
8BB\L	16gg\LL	.
.	16gg\	.
8BJ 8G\	16ff#X\	.
.	16gg\JJ	.
*tremolo	*	*
8BL 8G\	16aa\LL	.
.	16gg\	.
8B 8G\	16ff#\	.
.	16gg\JJ	.
*	*rep	*
8B 8G\	16aa\LL	.
.	16gg\	.
8BJ 8G\	16ff#\	.
*Xtremolo	*	*
.	16gg\JJ	.
*	*Xrep	*
=26	=26	=26
!LO:TX:a:t=P:problem=mixed beam	!	!
8AA\L	16r	.
.	16gg\LL	.
8cJ 8A\	16ff#X\	.
.	16gg\JJ	.
*tremolo	*	*
8cL 8A\	16aa\LL	.
.	16gg\	.
8c 8A\	16ff#\	.
.	16gg\JJ	.
*	*rep	*
8c 8A\	16aa\LL	.
.	16gg\	.
8cJ 8A\	16ff#\	.
*Xtremolo	*	*
.	16gg\JJ	.
*	*Xrep	*
!!LO:LB:g=original
=27	=27	=27
8BB\L	8gg#XL 8ffn 8dd\	f
16dL 16B\	16gg#L 16ff 16dd\	.
16dJJ 16B\	16gg#JJ 16ff 16dd\	.
8dL 8B\	8gg#L 8ff 8dd\	.
8d 8B\	8gg# 8ff 8dd\	.
!LO:SIC:n=2:s=8c#:v	!	!
8e 8c 8A\	8aa 8ee 8cc#X\	.
!LO:SIC:n=2:s=8c#:v	!	!
8eJ 8c 8A\	8aaJ 8ee 8cc#\	.
=28	=28	=28
2.c 2.A 2.F#X 2.D\	8dd 8a 8f#X 8d/	ff
!	!LO:TUP:a:problem=klamra łukowa	!
.	48dd\LLL	.
.	48ee\	.
.	48ff#X\	.
.	48gg\	.
.	48aa\	.
.	48bb\JJJ	.
.	16ccc\LL	.
.	16bb\	.
.	16ddd\	.
.	16ccc\JJ	.
.	16bb\LL	.
.	16aa\	.
.	16gg\	.
.	16ff#X\JJ	.
=29	=29	=29
8BL 8G 8D\	16gg\LL	.
.	16dd\	.
8cJ 8A 8D\	16ff#X\	.
.	16dd\JJ	.
*rep	*rep	*
8BL 8G 8D\	16gg\LL	.
.	16dd\	.
8cJ 8A 8D\	16ff#X\	.
.	16dd\JJ	.
*Xrep	*Xrep	*
4B 4G\	4gg 4b\	.
!LO:TX:a:t=[segno]:problem=znak segno na kresce taktowej	!LO:TX:a:t=[segno]:problem=znak segno na kresce taktowej	!
!	!LO:TX:b:Bi:t=Dal Segno.	!
==	==	==
*-	*-	*-
!!!system-decoration: {(s1,s2)}
!!!RDF**kern: > = above
!!!RDF**kern: < = below
!!!EED: Wojciech Jakubiak-Danek
!!!EEV: 2020-12-10
!!!ENC: Andrzej Kubiczek
!!!END: 2020-06-19
